X:118
T: Herzens Schluessel
N: A0135B
O: Europa, Mitteleuropa, Deutschland
N: Forster IV. 1556 No. 15.
R: Romanze, Ballade, Lied
M: 4/2
L: 1/2
K: F
F | FFAF | c2c2 | A2z
c | c2cB- | BAG2 | F2
F2 | FFAF | c2c2 | A2z
c | c2cB- | BAG2 | F2z
c | cccB | A2G
G | A2BcAB | G2z
c | cccA | F2cA2
c | c2c2 | ABG2 | F3

@@@ Tune index: 118
